X:368
T:Entemediu (MG 84)
R:Marcha
C:Versin de Silvino Fernndez Fueyo
S:Msica Tradicional Asturiana, (C) Tello & Tito. Asturies, 2001.
S:http://pagina.de/MusTradAst <telloytito@asturies.org>
A:Asturies
Z:Mtodu de Gaita 84
M:3/8
L:1/8
Q:3/8=80
E:Comp.
K:C
A/B/
|c~ec|A2 D|FED|C2 A/B/|c~ec|A2 F|AAB|~G>FE|GEG|~F>ED|FEF|G2 A/B/|
|c~ec|A2 D|FED|C2 A/B/|c~ec|A2 F|A A/B/A/B/|~G>FE|G G/A/G/A/|~F>ED|F E/D/E/F/|G2 A/B/|
|c~ec|A2 D|FED|CGC|
|: E ~E/D/E/F/|G2 ~A|G ~G/F/E/D/|~E>DC|.E ~E/D/E/F/|G2 ~A|G ~G/F/E/D/|C2 C :|
|: ~A F/A/F/A/|~G E/G/E/G/|~G E/G/E/G/|F D/F/D/F/|~E>DC|
|~A F/A/F/A/|~G E/G/E/G/|~G E/G/E/G/|F2 D|FED|[1 C3 :|[2 C2 A/B/|
